!!!OTL: 1423. Maedchen, trau den Soldaten nicht!
!!!ARE: Europa, Mitteleuropa, Deutschland, Lahn - Gegend
!!!SCT: E1423
!!!TXL: @@DE
!!!YEM: Copyright 1995, estate of Helmut Schaffrath.
**kern	**text
*ICvox	*
*M4/4	*
*met(c)	*
*k[f#]	*
*G:	*
!LO:TX:a:t=Mäßig.	!
!LO:TX:a:t=Aus der Lahngegend.	!
{4d	Ka-
=1	=1
4.g	-thrin-
8a	-chen,
4b	trau
4cc	nur
=2	=2
2dd	nicht,
4r}	.
{4ee	trau
=3	=3
4.dd	kei'm
8b	Sol-
4cc	-da-
4dd	-ten
=4	=4
2b	nicht;
4r}	.
{4dd	denn
=5	=5
4b	er
4dd	wird
4.ee	dich
8dd	ver-
=6	=6
4ee	-füh-
4dd	-ren,
4r}	.
{8cc/	dei-
8b/	-ne
=7	=7
4a	Ehr
4ee	wirſt
4.dd	du
8ee	ver-
=8	=8
4dd	-lie-
4b	-ren
4r}	.
{4ee^	glaubs
=9	=9
4dd	ſi-
4dd	-cher-
4b	-lich,
4ee^	glaubs
=10	=10
4dd	ſi-
4dd	-cher-
4b}	-lich!
==	==
!!!AGN: Staende -, Soldaten - Lied, Liebe
!!!ONB: ESAC (Essen Associative Code) Database: ERK3
!!!AMT: simple quadruple
!!!AIN: vox
!!!EED: Helmut Schaffrath
!!!EEV: 1.0
!!!GTL: Staendelieder (Berufslieder). 1. Soldaten- und Kriegslieder. Soldatenlieder seit dem 30jaehr. Kriege.
!!!URL-scan: https://rosdok.uni-rostock.de/mcrviewer/recordIdentifier/rosdok_ppn745177999/iview2/phys_0287.iview2?x=-128.77276441889308&y=1621.5710381080862&scale=0.5870222003877485&rotation=0&layout=singlePageLayout
!!!ENC: Anna Maria Matuszewska
!!!EEV: 2024/12/31
*-	*-
